icon_installer/data/icons/scalable/actions/show-horizontal-arrows-one-way-symbolic.svg

<?xml version="1.0" encoding="UTF-8"?>
<svg height="16px" viewBox="0 0 16 16" width="16px" xmlns="http://www.w3.org/2000/svg">
    <path d="m 10 1 v 1 c 0 0.257812 0.128906 0.527344 0.3125 0.71875 l 1.28125 1.28125 h -4.59375 c -0.527344 -0.007812 -1 0.472656 -1 1 s 0.472656 1.007812 1 1 h 4.625 l -1.21875 1.28125 c -0.183594 0.191406 -0.40625 0.460938 -0.40625 0.71875 v 0.425781 c 0.621094 -0.378906 1.910156 -0.507812 2.480469 -0.394531 l 2.925781 -3.03125 l -3.65625 -3.71875 c -0.199219 -0.191406 -0.441406 -0.28125 -0.75 -0.28125 z m -5 6 c -0.308594 0 -0.613281 0.089844 -0.8125 0.28125 l -3.59375 3.71875 l 3.65625 3.71875 c 0.199219 0.191406 0.441406 0.28125 0.75 0.28125 h 1 v -1 c 0 -0.257812 -0.128906 -0.527344 -0.3125 -0.71875 l -1.28125 -1.28125 h 3.625 c 0.023438 -0.277344 0.113281 -1 0.722656 -2 h -4.378906 l 1.21875 -1.28125 c 0.183594 -0.191406 0.40625 -0.460938 0.40625 -0.71875 v -1 z m 0 0" fill="#222222" fill-opacity="0.34902"/>
    <path d="m 12.5 9 c -1.933594 0 -3.5 1.566406 -3.5 3.5 s 1.566406 3.5 3.5 3.5 s 3.5 -1.566406 3.5 -3.5 s -1.566406 -3.5 -3.5 -3.5 z m -2.5 2.96875 h 5 v 1.03125 h -5 z m 0 0" fill="#e01b24"/>
</svg>

<svg xmlns="http://www.w3.org/2000/svg" width="16" height="16"><path fill="#222" fill-opacity=".349" d="M10 1v1c0 .258.129.527.313.719L11.592 4H7c-.527-.008-1 .473-1 1s.473 1.008 1 1h4.625l-1.219 1.281C10.223 7.473 10 7.742 10 8v.426c.621-.38 1.91-.508 2.48-.395L15.406 5 11.75 1.281C11.55 1.09 11.309 1 11 1zM5 7c-.309 0-.613.09-.813.281L.595 11l3.656 3.719c.2.191.441.281.75.281h1v-1c0-.258-.129-.527-.313-.719L4.407 12H8.03c.024-.277.114-1 .723-2H4.375l1.219-1.281C5.777 8.527 6 8.258 6 8V7zm0 0"/><path fill="#e01b24" d="M12.5 9a3.5 3.5 0 1 0 0 7 3.5 3.5 0 1 0 0-7zM10 11.969h5V13h-5zm0 0"/></svg>
